components/AppDevelopmentCommon/Svg/svgs/developmentGear.svg

<svg width="42" height="42" viewBox="0 0 42 42" fill="none" xmlns="http://www.w3.org/2000/svg">
<path d="M33.2866 5.88H5.91039C5.22314 5.88 4.66602 6.42846 4.66602 7.10501V29.155C4.66602 29.8316 5.22314 30.38 5.91039 30.38H33.2866C33.9738 30.38 34.531 29.8316 34.531 29.155V7.10501C34.531 6.42846 33.9738 5.88 33.2866 5.88Z" stroke="#161616" stroke-width="2" stroke-linecap="round" stroke-linejoin="round"/>
<path d="M28.1065 17.6665L26.1901 16.1957C26.0873 16.1165 25.9676 16.0635 25.8408 16.041C25.7141 16.0185 25.5839 16.0271 25.461 16.0662C24.8675 16.2564 24.2917 16.5003 23.7404 16.7949C23.6263 16.8562 23.528 16.9444 23.4537 17.0522C23.3795 17.16 23.3313 17.2844 23.3132 17.415L22.9745 19.8426C22.8453 19.9598 22.7189 20.0816 22.5952 20.2082C22.4715 20.3348 22.3524 20.4642 22.238 20.5965L22.2379 20.5966L19.8669 20.9437C19.7395 20.9621 19.6182 21.0113 19.513 21.0871C19.4078 21.1629 19.3217 21.2633 19.2619 21.3799C18.9736 21.944 18.7349 22.5332 18.5486 23.1406C18.5102 23.2666 18.5016 23.4001 18.5236 23.5301C18.5456 23.6601 18.5974 23.7828 18.6748 23.8883L20.1122 25.8501C20.1018 26.0264 20.0966 26.2041 20.0965 26.3831C20.0965 26.5621 20.1017 26.7399 20.1122 26.9163L20.1122 26.9163L18.6753 28.878C18.598 28.9833 18.5462 29.1058 18.5242 29.2356C18.5022 29.3654 18.5106 29.4986 18.5488 29.6244C18.7347 30.232 18.9729 30.8214 19.2607 31.3858C19.3206 31.5026 19.4067 31.6032 19.5121 31.6792C19.6174 31.7552 19.7389 31.8045 19.8665 31.823L22.2379 32.1698C22.3524 32.302 22.4714 32.4314 22.5951 32.5581C22.7187 32.6847 22.8452 32.8066 22.9744 32.9238L22.9744 32.9238L23.3135 35.351C23.3315 35.4814 23.3796 35.6055 23.4536 35.7132C23.5277 35.8209 23.6258 35.909 23.7396 35.9703C24.2907 36.2654 24.8663 36.5097 25.4597 36.7005C25.5827 36.7397 25.7131 36.7485 25.8401 36.726C25.9671 36.7036 26.087 36.6505 26.1901 36.5712L28.1065 35.0999C28.2787 35.1105 28.4523 35.1158 28.6272 35.1159C28.8021 35.1159 28.9757 35.1105 29.148 35.0999L29.1481 35.0999L31.0644 36.5707C31.1672 36.6499 31.287 36.7029 31.4137 36.7254C31.5405 36.7479 31.6707 36.7393 31.7936 36.7002C32.3871 36.5099 32.9629 36.2661 33.5142 35.9715C33.6283 35.9102 33.7266 35.822 33.8008 35.7142C33.8751 35.6064 33.9233 35.482 33.9414 35.3514L34.2801 32.9238C34.4092 32.8066 34.5357 32.6848 34.6594 32.5582C34.783 32.4316 34.9021 32.3022 35.0166 32.1699L35.0167 32.1698L37.3877 31.8227C37.5151 31.8043 37.6364 31.7551 37.7416 31.6793C37.8468 31.6035 37.9328 31.5031 37.9927 31.3865C38.281 30.8224 38.5197 30.2332 38.706 29.6258C38.7444 29.4998 38.7529 29.3663 38.731 29.2363C38.709 29.1063 38.6572 28.9836 38.5797 28.8781L37.1424 26.9163C37.1528 26.74 37.158 26.5623 37.158 26.3833C37.158 26.2043 37.1528 26.0265 37.1424 25.8501L37.1424 25.8501L38.5792 23.8884C38.6566 23.7831 38.7084 23.6606 38.7304 23.5308C38.7524 23.401 38.7439 23.2678 38.7057 23.142C38.5199 22.5344 38.2816 21.945 37.9938 21.3806C37.934 21.2638 37.8478 21.1632 37.7425 21.0872C37.6372 21.0112 37.5157 20.9619 37.3881 20.9433L35.0167 20.5966C34.9022 20.4644 34.7832 20.335 34.6595 20.2083C34.5358 20.0817 34.4094 19.9598 34.2802 19.8426L34.2801 19.8426L33.9411 17.4154C33.923 17.285 33.875 17.1609 33.8009 17.0532C33.7268 16.9455 33.6288 16.8574 33.5149 16.7961C32.9638 16.501 32.3882 16.2567 31.7949 16.0659C31.6718 16.0266 31.5415 16.0179 31.4145 16.0404C31.2875 16.0628 31.1675 16.1159 31.0645 16.1952L29.1481 17.6665C28.9759 17.6559 28.8023 17.6506 28.6274 17.6505C28.4525 17.6505 28.2789 17.6559 28.1065 17.6665L28.1065 17.6665Z" fill="#FFF281" stroke="#161616" stroke-width="2" stroke-linecap="round" stroke-linejoin="round"/>
<path d="M28.63 31.5725C31.3531 31.5725 33.5607 29.3116 33.5607 26.5225C33.5607 23.7335 31.3531 21.4725 28.63 21.4725C25.9068 21.4725 23.6992 23.7335 23.6992 26.5225C23.6992 29.3116 25.9068 31.5725 28.63 31.5725Z" stroke="#161616" stroke-width="2" stroke-linecap="round" stroke-linejoin="round"/>
<path d="M30.0391 25.88L28.2461 27.6772L27.3496 26.7786" stroke="#161616" stroke-width="1.5" stroke-linecap="round" stroke-linejoin="round"/>
</svg>

<svg xmlns="http://www.w3.org/2000/svg" width="42" height="42" fill="none">
  <path stroke="#161616" stroke-linecap="round" stroke-linejoin="round" stroke-width="2" d="M33.287 5.88H5.91c-.687 0-1.244.548-1.244 1.225v22.05c0 .677.557 1.225 1.244 1.225h27.377c.687 0 1.244-.548 1.244-1.225V7.105c0-.677-.557-1.225-1.244-1.225Z" />
  <path fill="#FFF281" stroke="#161616" stroke-linecap="round" stroke-linejoin="round" stroke-width="2" d="m28.107 17.666-1.917-1.47a.802.802 0 0 0-.729-.13c-.593.19-1.17.434-1.72.729a.82.82 0 0 0-.287.257.845.845 0 0 0-.14.363l-.34 2.428a8.742 8.742 0 0 0-.736.753h0l-2.371.348a.801.801 0 0 0-.605.436 10.878 10.878 0 0 0-.713 1.76.85.85 0 0 0 .126.748l1.437 1.962a9.137 9.137 0 0 0 0 1.066h0l-1.437 1.962a.842.842 0 0 0-.126.746c.186.608.424 1.197.712 1.762a.802.802 0 0 0 .606.437l2.37.347a8.844 8.844 0 0 0 .737.754h0l.34 2.427c.017.13.066.255.14.362a.819.819 0 0 0 .286.257c.55.295 1.126.54 1.72.73a.795.795 0 0 0 .73-.129l1.916-1.471a8.554 8.554 0 0 0 1.042 0h0l1.916 1.47a.802.802 0 0 0 .73.13c.593-.19 1.169-.434 1.72-.729a.844.844 0 0 0 .427-.62l.34-2.427a8.8 8.8 0 0 0 .736-.754h0l2.37-.347a.801.801 0 0 0 .606-.436c.288-.565.527-1.154.713-1.761a.852.852 0 0 0-.126-.748l-1.438-1.962a9.05 9.05 0 0 0 0-1.066h0l1.437-1.962a.84.84 0 0 0 .127-.746 10.883 10.883 0 0 0-.712-1.761.804.804 0 0 0-.606-.437l-2.371-.347a8.844 8.844 0 0 0-.737-.754h0l-.339-2.428a.844.844 0 0 0-.14-.362.818.818 0 0 0-.286-.257 10.367 10.367 0 0 0-1.72-.73.794.794 0 0 0-.73.13l-1.917 1.47a8.554 8.554 0 0 0-1.041 0h0Z" />
  <path stroke="#161616" stroke-linecap="round" stroke-linejoin="round" stroke-width="2" d="M28.63 31.573c2.723 0 4.93-2.261 4.93-5.05 0-2.79-2.207-5.05-4.93-5.05s-4.93 2.26-4.93 5.05c0 2.789 2.207 5.05 4.93 5.05Z" />
  <path stroke="#161616" stroke-linecap="round" stroke-linejoin="round" stroke-width="1.5" d="m30.04 25.88-1.794 1.797-.896-.898" />
</svg>
